X:22
T:Reel du carrefour
C:Yvon Cuillerier
N:©Yvon Cuillerier, all rights reserved
Z:robin.beech@mcgill.ca
R:reel
M:2/4
L:1/16
K:C
AB | c2ce dcBG | ABcA GFEG | FEFA GECE | DFAc BGAB |
c2ce | dcBG | ABcA GFEG | FEFA GECE | DCB,D C2 ::
gf | egce gceg | facf acfa | gecg ecgc | BdgB dgag |
egce gceg | facf acfa | gece dBGB | cBdB c2 :|

